plasma/desktoptheme/Arc-Color/widgets/slider.svg

<?xml version="1.0" encoding="UTF-8"?>
<svg width="128" height="128" version="1" xmlns="http://www.w3.org/2000/svg">
 <defs>
  <style id="current-color-scheme" type="text/css">.ColorScheme-Background {color:#2f343f; } .ColorScheme-ButtonBackground { color:#444a58; } .ColorScheme-Highlight { color:#5c87cc; } .ColorScheme-Text { color:#d3dae3; } .ColorScheme-NegativeText { color:#f44336; } .ColorScheme-PositiveText { color:#4caf50; } .ColorScheme-NeutralText { color:#ff9800; }</style>
 </defs>
 <path id="groove-top" d="m10 7v3h3v-3h-3z" opacity=".2"/>
 <rect id="hint-tile-center" x="2.26" y="4.66" width="2.033" height="2.077" rx="0" ry="2.077" fill="#4e9a06"/>
 <path id="groove-bottom" d="m10 18v-3h3v3h-3z" opacity=".2"/>
 <path id="groove-center" d="m10 11v3h3v-3h-3z" opacity=".2"/>
 <path id="groove-highlight-top" class="ColorScheme-Highlight" d="m28 7v3h3v-3h-3z" fill="currentColor"/>
 <path id="groove-highlight-bottom" class="ColorScheme-Highlight" d="m28 18v-3h3v3h-3z" fill="currentColor"/>
 <path id="groove-highlight-center" class="ColorScheme-Highlight" d="m28 11v3h3v-3h-3z" fill="currentColor"/>
 <g id="horizontal-slider-handle" transform="matrix(1.2,0,0,1.2,-2.2,63.2)">
  <path transform="matrix(.83333 0 0 .83333 -5.6667 -6)" d="m16 44h20v20h-20z" opacity=".001"/>
  <path transform="matrix(2.0833 0 0 2.0833 -13.167 -44.333)" d="m18 40a4 4 0 0 1-4 4 4 4 0 0 1-4-4 4 4 0 0 1 4-4 4 4 0 0 1 4 4z" opacity=".2"/>
  <path class="ColorScheme-ButtonBackground" transform="matrix(1.875,0,0,1.875,-10.25,-36)" d="m18 40a4 4 0 0 1-4 4 4 4 0 0 1-4-4 4 4 0 0 1 4-4 4 4 0 0 1 4 4z" fill="currentColor"/>
 </g>
 <g id="vertical-slider-handle" transform="matrix(1.2,0,0,1.2,-2.2,27.2)">
  <path transform="matrix(.83333 0 0 .83333 -5.6667 -6)" d="m16 44h20v20h-20z" opacity=".001"/>
  <path transform="matrix(2.0833 0 0 2.0833 -13.167 -44.333)" d="m18 40a4 4 0 0 1-4 4 4 4 0 0 1-4-4 4 4 0 0 1 4-4 4 4 0 0 1 4 4z" opacity=".2"/>
  <path class="ColorScheme-ButtonBackground" transform="matrix(1.875,0,0,1.875,-10.25,-36)" d="m18 40a4 4 0 0 1-4 4 4 4 0 0 1-4-4 4 4 0 0 1 4-4 4 4 0 0 1 4 4z" fill="currentColor"/>
 </g>
 <g id="horizontal-slider-shadow" opacity=".01">
  <path d="m98 100h20v20h-20z" opacity=".001"/>
 </g>
 <g id="vertical-slider-shadow" transform="translate(3,-36)" opacity=".01">
  <path d="m98 100h20v20h-20z" opacity=".001"/>
 </g>
 <g id="horizontal-slider-hover" transform="matrix(1.2,0,0,1.2,27.8,63.2)">
  <path transform="matrix(.83333 0 0 .83333 -5.6667 -6)" d="m16 44h20v20h-20z" opacity=".001"/>
  <circle transform="matrix(2.0833 0 0 2.0833 -13.167 -44.333)" cx="14" cy="40" r="4" opacity=".2"/>
  <circle class="ColorScheme-ButtonBackground" transform="matrix(1.875,0,0,1.875,-10.25,-36)" cx="14" cy="40" r="4" fill="currentColor"/>
 </g>
 <g id="vertical-slider-hover" transform="matrix(1.2,0,0,1.2,27.8,27.2)">
  <path transform="matrix(.83333 0 0 .83333 -5.6667 -6)" d="m16 44h20v20h-20z" opacity=".001"/>
  <circle transform="matrix(2.0833 0 0 2.0833 -13.167 -44.333)" cx="14" cy="40" r="4" opacity=".2"/>
  <circle class="ColorScheme-ButtonBackground" transform="matrix(1.875,0,0,1.875,-10.25,-36)" cx="14" cy="40" r="4" fill="currentColor"/>
 </g>
 <g id="horizontal-slider-focus" transform="matrix(1.2,0,0,1.2,57.8,63.2)">
  <path transform="matrix(.83333 0 0 .83333 -5.6667 -6)" d="m16 44h20v20h-20z" opacity=".001"/>
  <circle class="ColorScheme-Highlight" transform="matrix(2.0833 0 0 2.0833 -13.167 -44.333)" cx="14" cy="40" r="4" fill="currentColor"/>
 </g>
 <g id="vertical-slider-focus" transform="matrix(1.2,0,0,1.2,57.8,27.2)">
  <path transform="matrix(.83333 0 0 .83333 -5.6667 -6)" d="m16 44h20v20h-20z" opacity=".001"/>
  <circle class="ColorScheme-Highlight" transform="matrix(2.0833 0 0 2.0833 -13.167 -44.333)" cx="14" cy="40" r="4" fill="currentColor"/>
 </g>
 <circle id="hint-size" cx="87" cy="16" r="10" fill="#f00"/>
 <g id="groove-topleft" transform="translate(0,14)">
  <path d="m5.6-7h0.4v3h-0.4z" opacity=".001"/>
  <path d="m9-7c-1.6822 0-3 1.3178-3 3h3z" opacity=".2"/>
 </g>
 <g id="groove-left" transform="translate(0,14)">
  <path d="m6-3v3h3v-3z" opacity=".2"/>
  <path d="m5.6-3h0.4v3h-0.4z" opacity=".001"/>
 </g>
 <g id="groove-bottomleft" transform="translate(0,14)">
  <path d="m9 4c-1.6822 0-3-1.3178-3-3h3z" opacity=".2"/>
  <path d="m5.6 1h0.4v3h-0.4z" opacity=".001"/>
 </g>
 <g id="groove-topright" transform="translate(0,14)">
  <path d="m17-4c0-1.6822-1.3178-3-3-3v3z" opacity=".2"/>
  <path d="m17-7h0.4v3h-0.4z" opacity=".001"/>
 </g>
 <g id="groove-right" transform="translate(0,14)">
  <path d="m14-3v3h3v-3z" opacity=".2"/>
  <path d="m17-3h0.4v3h-0.4z" opacity=".001"/>
 </g>
 <g id="groove-bottomright" transform="translate(0,14)">
  <path d="m17 1c0 1.6822-1.3178 3-3 3v-3z" opacity=".2"/>
  <path d="m17 1h0.4v3h-0.4z" opacity=".001"/>
 </g>
 <g id="groove-highlight-topleft" transform="translate(0,14)">
  <path class="ColorScheme-Highlight" d="m27-7c-1.6822 0-3 1.3178-3 3h3z" fill="currentColor"/>
  <path d="m23.6-7h0.4v3h-0.4z" opacity=".001"/>
 </g>
 <g id="groove-highlight-left" transform="translate(0,14)">
  <path class="ColorScheme-Highlight" d="m24-3v3h3v-3z" fill="currentColor"/>
  <path d="m23.6-3h0.4v3h-0.4z" opacity=".001"/>
 </g>
 <g id="groove-highlight-bottomleft" transform="translate(0,14)">
  <path class="ColorScheme-Highlight" d="m27 4c-1.6822 0-3-1.3178-3-3h3z" fill="currentColor"/>
  <path d="m23.6 1h0.4v3h-0.4z" opacity=".001"/>
 </g>
 <g id="groove-highlight-topright" transform="translate(0,14)">
  <path class="ColorScheme-Highlight" d="m35-4c0-1.6822-1.3178-3-3-3v3z" fill="currentColor"/>
  <path d="m35-7h0.4v3h-0.4z" opacity=".001"/>
 </g>
 <g id="groove-highlight-right" transform="translate(0,14)">
  <path class="ColorScheme-Highlight" d="m32-3v3h3v-3z" fill="currentColor"/>
  <path d="m35-3h0.4v3h-0.4z" opacity=".001"/>
 </g>
 <g id="groove-highlight-bottomright" transform="translate(0,14)">
  <path class="ColorScheme-Highlight" d="m35 1c0 1.6822-1.3178 3-3 3v-3z" fill="currentColor"/>
  <path d="m35 1h0.4v3h-0.4z" opacity=".001"/>
 </g>
</svg>

<svg xmlns="http://www.w3.org/2000/svg" width="128" height="128" version="1">
<defs>
  <style id="current-color-scheme" type="text/css">
   .ColorScheme-Background {color:#2f343f; } .ColorScheme-ButtonBackground { color:#444a58; } .ColorScheme-Highlight { color:#5c87cc; } .ColorScheme-Text { color:#d3dae3; } .ColorScheme-NegativeText { color:#f44336; } .ColorScheme-PositiveText { color:#4caf50; } .ColorScheme-NeutralText { color:#ff9800; }
  </style>
 </defs>
 <path id="groove-top" style="opacity:0.2" d="m 10,7 0,3 3,0 0,-3 -3,0 z"/>
 <rect id="hint-tile-center" style="fill:#4e9a06" width="2.033" height="2.077" x="2.26" y="4.66" rx="0" ry="2.077"/>
 <path id="groove-bottom" style="opacity:0.2" d="m 10,18 0,-3 3,0 0,3 -3,0 z"/>
 <path id="groove-center" style="opacity:0.2" d="m 10,11 0,3 3,0 0,-3 -3,0 z"/>
 <path id="groove-highlight-top" style="fill:currentColor" class="ColorScheme-Highlight" d="m 28,7 0,3 3,0 0,-3 -3,0 z"/>
 <path id="groove-highlight-bottom" style="fill:currentColor" class="ColorScheme-Highlight" d="m 28,18 0,-3 3,0 0,3 -3,0 z"/>
 <path id="groove-highlight-center" style="fill:currentColor" class="ColorScheme-Highlight" d="m 28,11 0,3 3,0 0,-3 -3,0 z"/>
 <g id="horizontal-slider-handle" transform="matrix(1.2,0,0,1.2,-2.2,63.2)">
  <path style="opacity:0.001" transform="matrix(0.83333333,0,0,0.83333333,-5.6666667,-6)" d="M 16,44 H 36 V 64 H 16 Z"/>
  <path style="opacity:0.2" transform="matrix(2.0833333,0,0,2.0833333,-13.166666,-44.333332)" d="m 18,40 a 4,4 0 0 1 -4,4 4,4 0 0 1 -4,-4 4,4 0 0 1 4,-4 4,4 0 0 1 4,4 z"/>
  <path style="fill:currentColor" class="ColorScheme-ButtonBackground" transform="matrix(1.875,0,0,1.875,-10.25,-36)" d="m 18,40 a 4,4 0 0 1 -4,4 4,4 0 0 1 -4,-4 4,4 0 0 1 4,-4 4,4 0 0 1 4,4 z"/>
 </g>
 <g id="vertical-slider-handle" transform="matrix(1.2,0,0,1.2,-2.2,27.2)">
  <path style="opacity:0.001" transform="matrix(0.83333333,0,0,0.83333333,-5.6666667,-6)" d="M 16,44 H 36 V 64 H 16 Z"/>
  <path style="opacity:0.2" transform="matrix(2.0833333,0,0,2.0833333,-13.166666,-44.333332)" d="m 18,40 a 4,4 0 0 1 -4,4 4,4 0 0 1 -4,-4 4,4 0 0 1 4,-4 4,4 0 0 1 4,4 z"/>
  <path style="fill:currentColor" class="ColorScheme-ButtonBackground" transform="matrix(1.875,0,0,1.875,-10.25,-36)" d="m 18,40 a 4,4 0 0 1 -4,4 4,4 0 0 1 -4,-4 4,4 0 0 1 4,-4 4,4 0 0 1 4,4 z"/>
 </g>
 <g id="horizontal-slider-shadow" style="opacity:0.01">
  <path style="opacity:0.001" d="m 98,100 h 20 v 20 H 98 Z"/>
 </g>
 <g id="vertical-slider-shadow" style="opacity:0.01" transform="translate(3,-36)">
  <path style="opacity:0.001" d="m 98,100 h 20 v 20 H 98 Z"/>
 </g>
 <g id="horizontal-slider-hover" transform="matrix(1.2,0,0,1.2,27.8,63.2)">
  <path style="opacity:0.001" transform="matrix(0.83333333,0,0,0.83333333,-5.6666667,-6)" d="M 16,44 H 36 V 64 H 16 Z"/>
  <circle style="opacity:0.2" cx="14" cy="40" r="4" transform="matrix(2.0833333,0,0,2.0833333,-13.166666,-44.333332)"/>
  <circle style="fill:currentColor" class="ColorScheme-ButtonBackground" cx="14" cy="40" r="4" transform="matrix(1.875,0,0,1.875,-10.25,-36)"/>
 </g>
 <g id="vertical-slider-hover" transform="matrix(1.2,0,0,1.2,27.8,27.2)">
  <path style="opacity:0.001" transform="matrix(0.83333333,0,0,0.83333333,-5.6666667,-6)" d="M 16,44 H 36 V 64 H 16 Z"/>
  <circle style="opacity:0.2" cx="14" cy="40" r="4" transform="matrix(2.0833333,0,0,2.0833333,-13.166666,-44.333332)"/>
  <circle style="fill:currentColor" class="ColorScheme-ButtonBackground" cx="14" cy="40" r="4" transform="matrix(1.875,0,0,1.875,-10.25,-36)"/>
 </g>
 <g id="horizontal-slider-focus" transform="matrix(1.2,0,0,1.2,57.8,63.2)">
  <path style="opacity:0.001" transform="matrix(0.83333333,0,0,0.83333333,-5.6666667,-6)" d="M 16,44 H 36 V 64 H 16 Z"/>
  <circle style="fill:currentColor" class="ColorScheme-Highlight" cx="14" cy="40" r="4" transform="matrix(2.0833333,0,0,2.0833333,-13.166666,-44.333332)"/>
 </g>
 <g id="vertical-slider-focus" transform="matrix(1.2,0,0,1.2,57.8,27.2)">
  <path style="opacity:0.001" transform="matrix(0.83333333,0,0,0.83333333,-5.6666667,-6)" d="M 16,44 H 36 V 64 H 16 Z"/>
  <circle style="fill:currentColor" class="ColorScheme-Highlight" cx="14" cy="40" r="4" transform="matrix(2.0833333,0,0,2.0833333,-13.166666,-44.333332)"/>
 </g>
 <circle id="hint-size" style="fill:#ff0000" cx="87" cy="16" r="10"/>
 <g id="groove-topleft" transform="translate(0,14)">
  <path style="opacity:0.001" d="M 5.6,-7 H 6 v 3 H 5.6 Z"/>
  <path style="opacity:0.2" d="M 9,-7 C 7.31784,-7 6,-5.68216 6,-4 H 9 Z"/>
 </g>
 <g id="groove-left" transform="translate(0,14)">
  <path style="opacity:0.2" d="M 6,-3 V 0 H 9 V -3 Z"/>
  <path style="opacity:0.001" d="M 5.6,-3 H 6 V 0 H 5.6 Z"/>
 </g>
 <g id="groove-bottomleft" transform="translate(0,14)">
  <path style="opacity:0.2" d="M 9,4 C 7.31784,4 6,2.68216 6,1 h 3 z"/>
  <path style="opacity:0.001" d="M 5.6,1 H 6 V 4 H 5.6 Z"/>
 </g>
 <g id="groove-topright" transform="translate(0,14)">
  <path style="opacity:0.2" d="m 17,-4 c 0,-1.68216 -1.31784,-3 -3,-3 v 3 z"/>
  <path style="opacity:0.001" d="m 17,-7 h 0.4 v 3 H 17 Z"/>
 </g>
 <g id="groove-right" transform="translate(0,14)">
  <path style="opacity:0.2" d="m 14,-3 v 3 h 3 v -3 z"/>
  <path style="opacity:0.001" d="m 17,-3 h 0.4 V 0 H 17 Z"/>
 </g>
 <g id="groove-bottomright" transform="translate(0,14)">
  <path style="opacity:0.2" d="m 17,1 c 0,1.68216 -1.31784,3 -3,3 V 1 Z"/>
  <path style="opacity:0.001" d="m 17,1 h 0.4 V 4 H 17 Z"/>
 </g>
 <g id="groove-highlight-topleft" transform="translate(0,14)">
  <path style="fill:currentColor" class="ColorScheme-Highlight" d="m 27,-7 c -1.68216,0 -3,1.31784 -3,3 h 3 z"/>
  <path style="opacity:0.001" d="M 23.6,-7 H 24 v 3 h -0.4 z"/>
 </g>
 <g id="groove-highlight-left" transform="translate(0,14)">
  <path style="fill:currentColor" class="ColorScheme-Highlight" d="m 24,-3 v 3 h 3 v -3 z"/>
  <path style="opacity:0.001" d="M 23.6,-3 H 24 v 3 h -0.4 z"/>
 </g>
 <g id="groove-highlight-bottomleft" transform="translate(0,14)">
  <path style="fill:currentColor" class="ColorScheme-Highlight" d="M 27,4 C 25.31784,4 24,2.68216 24,1 h 3 z"/>
  <path style="opacity:0.001" d="M 23.6,1 H 24 v 3 h -0.4 z"/>
 </g>
 <g id="groove-highlight-topright" transform="translate(0,14)">
  <path style="fill:currentColor" class="ColorScheme-Highlight" d="m 35,-4 c 0,-1.68216 -1.31784,-3 -3,-3 v 3 z"/>
  <path style="opacity:0.001" d="m 35,-7 h 0.4 v 3 H 35 Z"/>
 </g>
 <g id="groove-highlight-right" transform="translate(0,14)">
  <path style="fill:currentColor" class="ColorScheme-Highlight" d="m 32,-3 v 3 h 3 v -3 z"/>
  <path style="opacity:0.001" d="m 35,-3 h 0.4 V 0 H 35 Z"/>
 </g>
 <g id="groove-highlight-bottomright" transform="translate(0,14)">
  <path style="fill:currentColor" class="ColorScheme-Highlight" d="m 35,1 c 0,1.68216 -1.31784,3 -3,3 V 1 Z"/>
  <path style="opacity:0.001" d="m 35,1 h 0.4 V 4 H 35 Z"/>
 </g>
</svg>
